src/svg/icon-camera.svg

<svg width="16" height="13" viewBox="0 0 16 13" fill="none" xmlns="http://www.w3.org/2000/svg">
<path d="M13.8182 5.45932C13.6253 5.45932 13.4403 5.53121 13.3039 5.65919C13.1675 5.78717 13.0909 5.96074 13.0909 6.14173V10.9186C13.0909 11.0996 13.0143 11.2732 12.8779 11.4012C12.7415 11.5292 12.5565 11.6011 12.3636 11.6011H2.18182C1.98893 11.6011 1.80395 11.5292 1.66756 11.4012C1.53117 11.2732 1.45455 11.0996 1.45455 10.9186V5.45932C1.45455 5.27833 1.53117 5.10476 1.66756 4.97678C1.80395 4.8488 1.98893 4.7769 2.18182 4.7769H3.63636C3.79496 4.78467 3.9519 4.74352 4.08323 4.65972C4.21455 4.57593 4.31303 4.45411 4.36364 4.31286L4.75636 3.1937C4.80515 3.05816 4.89811 2.94043 5.02209 2.85716C5.14607 2.77389 5.2948 2.72929 5.44727 2.72966H9.45455C9.64743 2.72966 9.83241 2.65776 9.96881 2.52978C10.1052 2.40181 10.1818 2.22823 10.1818 2.04724C10.1818 1.86626 10.1052 1.69268 9.96881 1.5647C9.83241 1.43673 9.64743 1.36483 9.45455 1.36483H5.41091C4.95385 1.36563 4.50861 1.5011 4.13801 1.7521C3.76742 2.00311 3.49019 2.35698 3.34545 2.76378L3.11273 3.44619H2.18182C1.60316 3.44619 1.04821 3.66189 0.63904 4.04582C0.229869 4.42975 0 4.95048 0 5.49344V10.9528C0 11.4957 0.229869 12.0164 0.63904 12.4004C1.04821 12.7843 1.60316 13 2.18182 13H12.3636C12.9423 13 13.4972 12.7843 13.9064 12.4004C14.3156 12.0164 14.5455 11.4957 14.5455 10.9528V6.17585C14.5504 6.08341 14.5352 5.99099 14.5009 5.90421C14.4666 5.81744 14.4138 5.73813 14.3457 5.6711C14.2777 5.60407 14.1959 5.55073 14.1052 5.51433C14.0145 5.47792 13.9168 5.4592 13.8182 5.45932ZM7.27273 4.7769C6.69736 4.7769 6.13492 4.937 5.65652 5.23693C5.17813 5.53687 4.80526 5.96319 4.58508 6.46197C4.3649 6.96075 4.30729 7.50959 4.41953 8.03909C4.53178 8.56859 4.80885 9.05497 5.21569 9.43672C5.62253 9.81847 6.14088 10.0784 6.70519 10.1838C7.2695 10.2891 7.85442 10.235 8.38599 10.0284C8.91756 9.82184 9.37189 9.47197 9.69155 9.02308C10.0112 8.57419 10.1818 8.04644 10.1818 7.50656C10.1818 6.78261 9.87533 6.08831 9.32977 5.5764C8.78421 5.06449 8.04427 4.7769 7.27273 4.7769ZM7.27273 8.87139C6.98505 8.87139 6.70382 8.79135 6.46463 8.64138C6.22543 8.49141 6.03899 8.27825 5.9289 8.02886C5.81881 7.77947 5.79001 7.50505 5.84613 7.2403C5.90225 6.97555 6.04079 6.73236 6.24421 6.54148C6.44763 6.35061 6.70681 6.22062 6.98896 6.16796C7.27111 6.11529 7.56357 6.14232 7.82936 6.24562C8.09514 6.34892 8.32231 6.52386 8.48214 6.7483C8.64196 6.97275 8.72727 7.23662 8.72727 7.50656C8.72727 7.86854 8.57403 8.21569 8.30125 8.47164C8.02847 8.7276 7.6585 8.87139 7.27273 8.87139ZM15.2727 1.36483H14.5455V0.682415C14.5455 0.501427 14.4688 0.327852 14.3324 0.199875C14.1961 0.071897 14.0111 0 13.8182 0C13.6253 0 13.4403 0.071897 13.3039 0.199875C13.1675 0.327852 13.0909 0.501427 13.0909 0.682415V1.36483H12.3636C12.1708 1.36483 11.9858 1.43673 11.8494 1.5647C11.713 1.69268 11.6364 1.86626 11.6364 2.04724C11.6364 2.22823 11.713 2.40181 11.8494 2.52978C11.9858 2.65776 12.1708 2.72966 12.3636 2.72966H13.0909V3.41207C13.0909 3.59306 13.1675 3.76664 13.3039 3.89461C13.4403 4.02259 13.6253 4.09449 13.8182 4.09449C14.0111 4.09449 14.1961 4.02259 14.3324 3.89461C14.4688 3.76664 14.5455 3.59306 14.5455 3.41207V2.72966H15.2727C15.4656 2.72966 15.6506 2.65776 15.787 2.52978C15.9234 2.40181 16 2.22823 16 2.04724C16 1.86626 15.9234 1.69268 15.787 1.5647C15.6506 1.43673 15.4656 1.36483 15.2727 1.36483Z" fill="currentColor"/>
</svg>

<svg xmlns="http://www.w3.org/2000/svg" width="16" height="13" fill="none" viewBox="0 0 16 13"><path fill="currentColor" d="M13.818 5.46a.75.75 0 0 0-.514.2.66.66 0 0 0-.213.482v4.777a.66.66 0 0 1-.213.482.75.75 0 0 1-.514.2H2.182a.75.75 0 0 1-.514-.2.66.66 0 0 1-.213-.482v-5.46a.66.66 0 0 1 .213-.482.75.75 0 0 1 .514-.2h1.454a.76.76 0 0 0 .447-.117.7.7 0 0 0 .28-.347l.393-1.12a.7.7 0 0 1 .266-.336.76.76 0 0 1 .425-.127h4.008a.75.75 0 0 0 .514-.2.66.66 0 0 0 .213-.483.66.66 0 0 0-.213-.482.75.75 0 0 0-.514-.2H5.41a2.3 2.3 0 0 0-1.273.387c-.37.251-.648.605-.793 1.012l-.232.682h-.931c-.579 0-1.134.216-1.543.6S0 4.95 0 5.493v5.46c0 .543.23 1.063.639 1.447s.964.6 1.543.6h10.182c.578 0 1.133-.216 1.542-.6s.64-.904.64-1.447V6.176a.65.65 0 0 0-.2-.505.7.7 0 0 0-.24-.157.8.8 0 0 0-.288-.055m-6.545-.683c-.576 0-1.138.16-1.616.46s-.852.726-1.072 1.225a2.57 2.57 0 0 0-.165 1.577c.112.53.389 1.016.796 1.398s.925.641 1.49.747a3.1 3.1 0 0 0 1.68-.156 2.9 2.9 0 0 0 1.306-1.005c.32-.449.49-.977.49-1.516 0-.724-.307-1.419-.852-1.93a3 3 0 0 0-2.057-.8m0 4.094c-.288 0-.57-.08-.808-.23a1.4 1.4 0 0 1-.536-.612 1.3 1.3 0 0 1-.083-.789c.056-.264.195-.508.398-.699s.463-.32.745-.373.575-.026.84.078c.266.103.493.278.653.502.16.225.245.489.245.759 0 .362-.153.709-.426.965s-.643.4-1.028.4m8-7.506h-.727V.682A.66.66 0 0 0 14.332.2a.75.75 0 0 0-.514-.2.75.75 0 0 0-.514.2.66.66 0 0 0-.213.482v.683h-.727a.75.75 0 0 0-.515.2.66.66 0 0 0-.213.482c0 .181.077.355.213.483.137.128.322.2.515.2h.727v.682c0 .181.077.355.213.483s.321.2.514.2a.75.75 0 0 0 .514-.2.66.66 0 0 0 .213-.483V2.73h.728a.75.75 0 0 0 .514-.2.66.66 0 0 0 .213-.483.66.66 0 0 0-.213-.482.75.75 0 0 0-.514-.2"/></svg>
